X: 1
T: Humours Of Ballingarry, The
M: 6/8
L: 1/8
R: jig
K: Gmaj
|:A|BGG dGG|cAG FGA|BAG BdB|cAF G2A|
BGG dGG|cAG FGA|def gdB|cAF G2:|
|:B|def gfg|edc BAG|A2a aga|bge edB|
def gfg|edc BAB|GBd gdB|cAF G2:|
